images/zhuyin/02.svg

<svg width="50" height="50" viewBox="0 0 50 50" fill="none" xmlns="http://www.w3.org/2000/svg">
<path d="M20.5234 14.6562C20.6953 14.6562 21.0859 14.8984 21.6953 15.3828C22.1484 15.7109 22.375 15.9688 22.375 16.1562C22.375 16.375 22.2656 16.5547 22.0469 16.6953C21.6719 17.0078 21.2188 17.7188 20.6875 18.8281C20.125 19.9531 19.8438 20.7188 19.8438 21.125C19.8438 21.3906 19.9688 21.5234 20.2188 21.5234C20.4375 21.5234 21.9297 21.1719 24.6953 20.4688C27.2422 19.9375 28.7266 19.5469 29.1484 19.2969C29.8047 18.9531 30.2656 18.7812 30.5312 18.7812C30.8906 18.7812 31.3828 19.1094 32.0078 19.7656C32.4609 20.2656 32.6875 20.625 32.6875 20.8438C32.6875 20.9844 32.5312 21.1875 32.2188 21.4531C31.9062 21.7031 31.2656 22.6562 30.2969 24.3125C29.3281 25.9531 28.2969 27.3984 27.2031 28.6484C29.0625 29.7109 30.4297 30.6719 31.3047 31.5312C31.7891 32.0469 32.0312 32.8906 32.0312 34.0625C32.0312 34.625 31.875 34.9062 31.5625 34.9062C31.2344 34.9062 30.6953 34.4922 29.9453 33.6641C29.1953 32.7266 27.9531 31.4922 26.2188 29.9609L26.0781 29.8672L25.9844 29.9609C24.5625 31.4297 22.8438 32.6797 20.8281 33.7109C19.2031 34.5078 18.1016 34.9062 17.5234 34.9062C17.3828 34.9062 17.3125 34.875 17.3125 34.8125C17.3125 34.7812 17.4766 34.6797 17.8047 34.5078C18.8359 34.0703 20.25 33.0547 22.0469 31.4609C23.0469 30.5859 23.9609 29.7031 24.7891 28.8125C23.8203 28.0781 22.9219 27.4453 22.0938 26.9141C21.2812 26.3984 20.875 26.0938 20.875 26C20.875 25.9375 20.9375 25.9062 21.0625 25.9062C21.7188 25.9062 23.2656 26.5391 25.7031 27.8047C26.3906 27.0078 27.0156 26.2031 27.5781 25.3906C29.2344 23.0781 30.0625 21.5938 30.0625 20.9375C30.0625 20.6875 29.9375 20.5625 29.6875 20.5625C28.8438 20.5625 27 20.9688 24.1562 21.7812C21.3594 22.5156 19.6562 23.0859 19.0469 23.4922C18.7031 23.6641 18.4375 23.75 18.25 23.75C18.1094 23.75 17.8984 23.5312 17.6172 23.0938C17.4141 22.7969 17.3125 22.5547 17.3125 22.3672C17.3125 22.2266 17.625 21.6016 18.25 20.4922C19.625 18.2266 20.3125 16.5391 20.3125 15.4297C20.3125 14.9141 20.3828 14.6562 20.5234 14.6562Z" fill="#333333"/>
<path d="M21.6953 15.3828L21.3842 15.7742L21.393 15.7812L21.4021 15.7878L21.6953 15.3828ZM22.0469 16.6953L21.7765 16.2747L21.7505 16.2914L21.7268 16.3112L22.0469 16.6953ZM20.6875 18.8281L21.1348 19.0518L21.1385 19.0441L20.6875 18.8281ZM24.6953 20.4688L24.5932 19.9793L24.5826 19.9815L24.5721 19.9842L24.6953 20.4688ZM29.1484 19.2969L28.9164 18.854L28.9048 18.86L28.8935 18.8667L29.1484 19.2969ZM32.0078 19.7656L32.3784 19.4298L32.3699 19.4208L32.0078 19.7656ZM32.2188 21.4531L32.5311 21.8436L32.5369 21.8389L32.5426 21.8341L32.2188 21.4531ZM30.2969 24.3125L30.7274 24.5667L30.7285 24.5649L30.2969 24.3125ZM27.2031 28.6484L26.8268 28.3192L26.4243 28.7793L26.9551 29.0826L27.2031 28.6484ZM31.3047 31.5312L31.6691 31.1889L31.6622 31.1816L31.655 31.1745L31.3047 31.5312ZM29.9453 33.6641L29.5549 33.9764L29.5644 33.9884L29.5747 33.9997L29.9453 33.6641ZM26.2188 29.9609L26.5497 29.5861L26.5243 29.5637L26.4961 29.5449L26.2188 29.9609ZM26.0781 29.8672L26.3555 29.4512L26.0144 29.2238L25.7246 29.5136L26.0781 29.8672ZM25.9844 29.9609L25.6308 29.6073L25.6251 29.6132L25.9844 29.9609ZM20.8281 33.7109L21.0483 34.1599L21.0559 34.1561L20.8281 33.7109ZM17.8047 34.5078L17.6094 34.0475L17.5907 34.0555L17.5727 34.0649L17.8047 34.5078ZM22.0469 31.4609L21.7176 31.0846L21.7151 31.0869L22.0469 31.4609ZM24.7891 28.8125L25.1552 29.153L25.5317 28.7481L25.0911 28.414L24.7891 28.8125ZM22.0938 26.9141L22.3637 26.4932L22.3617 26.4919L22.0938 26.9141ZM25.7031 27.8047L25.4727 28.2484L25.8235 28.4306L26.0817 28.1313L25.7031 27.8047ZM27.5781 25.3906L27.1716 25.0994L27.167 25.106L27.5781 25.3906ZM24.1562 21.7812L24.2833 22.265L24.2936 22.262L24.1562 21.7812ZM19.0469 23.4922L19.2705 23.9394L19.2983 23.9255L19.3242 23.9082L19.0469 23.4922ZM17.6172 23.0938L18.0378 22.8234L18.0339 22.8173L18.0298 22.8114L17.6172 23.0938ZM18.25 20.4922L17.8226 20.2328L17.8184 20.2397L17.8144 20.2468L18.25 20.4922ZM20.5234 15.1562C20.4646 15.1562 20.4465 15.1398 20.4956 15.1609C20.535 15.1778 20.5959 15.2096 20.6818 15.2628C20.8532 15.3691 21.0859 15.5371 21.3842 15.7742L22.0064 14.9914C21.6954 14.7442 21.428 14.5489 21.2088 14.4129C21.0994 14.3451 20.9924 14.286 20.8911 14.2424C20.7995 14.203 20.6682 14.1562 20.5234 14.1562V15.1562ZM21.4021 15.7878C21.6148 15.9418 21.7512 16.0633 21.8295 16.1523C21.868 16.1962 21.8831 16.2217 21.8869 16.2292C21.8908 16.2369 21.875 16.2099 21.875 16.1562H22.875C22.875 15.8742 22.7149 15.6449 22.5807 15.4922C22.4324 15.3234 22.229 15.1519 21.9886 14.9778L21.4021 15.7878ZM21.875 16.1562C21.875 16.1778 21.8709 16.1868 21.8659 16.1951C21.8588 16.2068 21.8369 16.2359 21.7765 16.2747L22.3173 17.1159C22.6478 16.9034 22.875 16.5793 22.875 16.1562H21.875ZM21.7268 16.3112C21.4811 16.516 21.2414 16.8219 21.0041 17.1942C20.7631 17.5724 20.5073 18.0468 20.2365 18.6122L21.1385 19.0441C21.3989 18.5001 21.6354 18.0643 21.8474 17.7316C22.0633 17.3929 22.2377 17.1872 22.367 17.0794L21.7268 16.3112ZM20.2403 18.6045C19.9547 19.1758 19.7348 19.6667 19.5854 20.0737C19.4407 20.4676 19.3438 20.8295 19.3438 21.125H20.3438C20.3438 21.0142 20.3875 20.7902 20.524 20.4185C20.6558 20.0598 20.8578 19.6055 21.1347 19.0517L20.2403 18.6045ZM19.3438 21.125C19.3438 21.3276 19.3908 21.5725 19.5734 21.7665C19.7613 21.9662 20.0087 22.0234 20.2188 22.0234V21.0234C20.1991 21.0234 20.2031 21.0207 20.2216 21.0272C20.2428 21.0347 20.2735 21.0513 20.3016 21.0811C20.3592 21.1423 20.3438 21.188 20.3438 21.125H19.3438ZM20.2188 22.0234C20.2914 22.0234 20.3751 22.0112 20.4412 22.0004C20.5177 21.9879 20.6121 21.9699 20.7222 21.9473C20.943 21.9019 21.2418 21.8347 21.6166 21.7464C22.367 21.5696 23.4348 21.3051 24.8185 20.9533L24.5721 19.9842C23.1902 20.3355 22.1291 20.5983 21.3873 20.7731C21.016 20.8606 20.7279 20.9252 20.5209 20.9678C20.4172 20.9891 20.3375 21.0041 20.2797 21.0135C20.2115 21.0247 20.2008 21.0234 20.2188 21.0234V22.0234ZM24.7974 20.9582C26.0744 20.6919 27.0917 20.4594 27.846 20.2609C28.5742 20.0693 29.1216 19.894 29.4033 19.727L28.8935 18.8667C28.7534 18.9498 28.3477 19.0948 27.5915 19.2938C26.8614 19.4859 25.8631 19.7144 24.5932 19.9793L24.7974 20.9582ZM29.3804 19.7398C29.6983 19.5733 29.9573 19.4546 30.161 19.3786C30.3749 19.2989 30.4891 19.2812 30.5312 19.2812V18.2812C30.3078 18.2812 30.0587 18.3495 29.8116 18.4417C29.5544 18.5376 29.2548 18.6767 28.9164 18.854L29.3804 19.7398ZM30.5312 19.2812C30.5671 19.2812 30.6807 19.3021 30.8926 19.4434C31.0962 19.5791 31.3468 19.7966 31.6457 20.1105L32.3699 19.4208C32.0438 19.0784 31.7358 18.8037 31.4473 18.6113C31.167 18.4245 30.8547 18.2812 30.5312 18.2812V19.2812ZM31.6373 20.1014C31.8543 20.3408 32.003 20.5316 32.0946 20.6768C32.1971 20.8394 32.1875 20.8825 32.1875 20.8438H33.1875C33.1875 20.5863 33.0646 20.3403 32.9405 20.1435C32.8055 19.9294 32.6144 19.6904 32.3783 19.4299L31.6373 20.1014ZM32.1875 20.8438C32.1875 20.7875 32.2026 20.7549 32.203 20.754C32.2038 20.7524 32.1974 20.7662 32.174 20.7967C32.1261 20.859 32.0383 20.9503 31.8949 21.0722L32.5426 21.8341C32.7117 21.6903 32.8583 21.5473 32.9666 21.4064C33.0635 21.2805 33.1875 21.0837 33.1875 20.8438H32.1875ZM31.9064 21.0627C31.681 21.243 31.4031 21.6091 31.0889 22.0766C30.7602 22.5656 30.3519 23.228 29.8653 24.0601L30.7285 24.5649C31.2106 23.7407 31.6069 23.0985 31.9189 22.6344C32.2454 22.1487 32.444 21.9132 32.5311 21.8436L31.9064 21.0627ZM29.8663 24.0583C28.9111 25.6761 27.8975 27.0956 26.8268 28.3192L27.5794 28.9777C28.6962 27.7013 29.7452 26.2302 30.7274 24.5667L29.8663 24.0583ZM26.9551 29.0826C28.8004 30.1371 30.1245 31.073 30.9543 31.888L31.655 31.1745C30.7349 30.2708 29.3246 29.2848 27.4512 28.2143L26.9551 29.0826ZM30.9403 31.8736C31.2956 32.2519 31.5312 32.9394 31.5312 34.0625H32.5312C32.5312 32.8419 32.2825 31.8419 31.6691 31.1889L30.9403 31.8736ZM31.5312 34.0625C31.5312 34.1814 31.5229 34.2727 31.5103 34.3406C31.4976 34.4095 31.4827 34.4423 31.477 34.4525C31.4729 34.4598 31.4813 34.4422 31.5103 34.4248C31.5401 34.4069 31.5632 34.4062 31.5625 34.4062V35.4062C31.718 35.4062 31.8779 35.3704 32.0248 35.2823C32.171 35.1946 32.2771 35.0714 32.3511 34.9381C32.4909 34.6866 32.5312 34.3737 32.5312 34.0625H31.5312ZM31.5625 34.4062C31.5771 34.4062 31.476 34.3984 31.2167 34.1992C30.9812 34.0183 30.6818 33.7325 30.3159 33.3284L29.5747 33.9997C29.9588 34.4238 30.304 34.7591 30.6075 34.9922C30.8873 35.2071 31.2198 35.4062 31.5625 35.4062V34.4062ZM30.3357 33.3517C29.5581 32.3797 28.2897 31.1224 26.5497 29.5861L25.8878 30.3358C27.6165 31.862 28.8325 33.0735 29.5549 33.9764L30.3357 33.3517ZM26.4961 29.5449L26.3555 29.4512L25.8008 30.2832L25.9414 30.377L26.4961 29.5449ZM25.7246 29.5136L25.6308 29.6074L26.3379 30.3145L26.4317 30.2207L25.7246 29.5136ZM25.6251 29.6132C24.2453 31.0385 22.5724 32.2569 20.6004 33.2658L21.0559 34.1561C23.1151 33.1025 24.8797 31.8209 26.3436 30.3087L25.6251 29.6132ZM20.608 33.262C19.804 33.6563 19.1403 33.9466 18.6131 34.1372C18.0727 34.3327 17.7212 34.4062 17.5234 34.4062V35.4062C17.9038 35.4062 18.3921 35.2806 18.9533 35.0776C19.5277 34.8699 20.2272 34.5625 21.0483 34.1599L20.608 33.262ZM17.5234 34.4062C17.4747 34.4062 17.5066 34.3985 17.5683 34.4259C17.605 34.4422 17.6697 34.4789 17.7257 34.5535C17.7863 34.6343 17.8125 34.7276 17.8125 34.8125H16.8125C16.8125 34.9286 16.8475 35.0493 16.9257 35.1535C16.9992 35.2516 17.0903 35.3078 17.1622 35.3397C17.2942 35.3984 17.4316 35.4062 17.5234 35.4062V34.4062ZM17.8125 34.8125C17.8125 34.9169 17.7795 34.9946 17.7594 35.0338C17.7381 35.0754 17.7155 35.1043 17.703 35.1191C17.6787 35.1481 17.6586 35.1639 17.6579 35.1645C17.6538 35.1678 17.6636 35.1598 17.6987 35.138C17.7652 35.0969 17.8755 35.0352 18.0367 34.9507L17.5727 34.0649C17.4058 34.1523 17.27 34.2273 17.1724 34.2878C17.1255 34.3168 17.0737 34.3508 17.0287 34.3873C17.0074 34.4044 16.972 34.4347 16.9373 34.4759C16.9226 34.4934 16.8125 34.6181 16.8125 34.8125H17.8125ZM18 34.9681C19.1113 34.4966 20.5767 33.4332 22.3787 31.835L21.7151 31.0869C19.9233 32.6762 18.5606 33.644 17.6094 34.0475L18 34.9681ZM22.3761 31.8372C23.3879 30.952 24.3144 30.0573 25.1552 29.153L24.4229 28.472C23.6075 29.349 22.7059 30.2199 21.7176 31.0846L22.3761 31.8372ZM25.0911 28.414C24.1143 27.6735 23.205 27.0329 22.3637 26.4932L21.8238 27.3349C22.6387 27.8577 23.5263 28.4827 24.487 29.211L25.0911 28.414ZM22.3617 26.4919C21.9585 26.2361 21.667 26.0393 21.4797 25.8988C21.3844 25.8273 21.3287 25.7798 21.3013 25.7529C21.2868 25.7387 21.2923 25.742 21.3049 25.7602C21.3058 25.7614 21.375 25.8528 21.375 26H20.375C20.375 26.1706 20.4569 26.2921 20.4831 26.3299C20.5211 26.3847 20.5648 26.4312 20.6011 26.4668C20.6752 26.5396 20.7719 26.618 20.8797 26.6988C21.0987 26.8631 21.4165 27.0764 21.8258 27.3362L22.3617 26.4919ZM21.375 26C21.375 26.0719 21.3556 26.1571 21.3027 26.2363C21.252 26.3125 21.1892 26.3551 21.1455 26.3769C21.0723 26.4135 21.0255 26.4062 21.0625 26.4062V25.4062C20.9745 25.4062 20.834 25.4146 20.6983 25.4825C20.6233 25.5199 20.5371 25.582 20.4707 25.6816C20.4022 25.7844 20.375 25.8969 20.375 26H21.375ZM21.0625 26.4062C21.2803 26.4062 21.7468 26.525 22.5255 26.8436C23.279 27.1519 24.26 27.6188 25.4727 28.2484L25.9335 27.3609C24.7087 26.725 23.6976 26.2427 22.9042 25.9181C22.1361 25.6039 21.501 25.4062 21.0625 25.4062V26.4062ZM26.0817 28.1313C26.78 27.3219 27.416 26.5032 27.9892 25.6752L27.167 25.106C26.6152 25.903 26.0012 26.6938 25.3245 27.4781L26.0817 28.1313ZM27.9846 25.6818C28.8175 24.5189 29.4508 23.5524 29.8781 22.7866C30.0916 22.4038 30.2587 22.0623 30.3735 21.7654C30.4852 21.4767 30.5625 21.193 30.5625 20.9375H29.5625C29.5625 21.0101 29.5363 21.158 29.4409 21.4046C29.3488 21.6428 29.2053 21.9399 29.0048 22.2994C28.6039 23.0179 27.995 23.9498 27.1716 25.0995L27.9846 25.6818ZM30.5625 20.9375C30.5625 20.7354 30.5116 20.492 30.3223 20.3027C30.133 20.1134 29.8896 20.0625 29.6875 20.0625V21.0625C29.7354 21.0625 29.6795 21.0741 29.6152 21.0098C29.5509 20.9455 29.5625 20.8896 29.5625 20.9375H30.5625ZM29.6875 20.0625C29.2069 20.0625 28.4891 20.1751 27.5643 20.3789C26.6285 20.5851 25.4458 20.8928 24.0189 21.3005L24.2936 22.262C25.7105 21.8572 26.8715 21.5555 27.7795 21.3555C28.6984 21.153 29.3244 21.0625 29.6875 21.0625V20.0625ZM24.0293 21.2976C22.6257 21.6662 21.4889 21.9955 20.6225 22.2856C19.7722 22.5704 19.1357 22.832 18.7695 23.0762L19.3242 23.9082C19.5674 23.7461 20.0872 23.5195 20.94 23.2339C21.7768 22.9537 22.8899 22.6307 24.2832 22.2649L24.0293 21.2976ZM18.8233 23.045C18.4908 23.2112 18.3139 23.25 18.25 23.25V24.25C18.5611 24.25 18.9154 24.1169 19.2705 23.9394L18.8233 23.045ZM18.25 23.25C18.3424 23.25 18.3953 23.2843 18.3955 23.2845C18.3987 23.2864 18.3824 23.2763 18.3463 23.2389C18.2739 23.1638 18.1713 23.0311 18.0378 22.8234L17.1966 23.3641C17.3443 23.5939 17.4878 23.7893 17.6264 23.933C17.6957 24.0049 17.7761 24.0768 17.8672 24.1335C17.9553 24.1883 18.0873 24.25 18.25 24.25V23.25ZM18.0298 22.8114C17.8394 22.5331 17.8125 22.3969 17.8125 22.3672H16.8125C16.8125 22.7125 16.9887 23.0606 17.2045 23.3761L18.0298 22.8114ZM17.8125 22.3672C17.8125 22.4245 17.7999 22.4561 17.8063 22.4348C17.8097 22.4233 17.8179 22.3994 17.834 22.3598C17.8661 22.2812 17.9184 22.1681 17.9941 22.0166C18.1448 21.7151 18.3745 21.2899 18.6856 20.7376L17.8144 20.2468C17.5005 20.8038 17.2614 21.2458 17.0997 21.5694C17.0191 21.7304 16.9542 21.8692 16.9082 21.9819C16.8853 22.0381 16.8642 22.0947 16.848 22.1487C16.8349 22.1929 16.8125 22.2747 16.8125 22.3672H17.8125ZM18.6774 20.7516C19.3731 19.6054 19.9028 18.5925 20.2599 17.716C20.6144 16.8459 20.8125 16.0774 20.8125 15.4297H19.8125C19.8125 15.8913 19.6669 16.5213 19.3338 17.3387C19.0034 18.1497 18.5019 19.1134 17.8226 20.2328L18.6774 20.7516ZM20.8125 15.4297C20.8125 15.1832 20.8305 15.044 20.8476 14.9812C20.8566 14.9482 20.855 14.9761 20.8181 15.0212C20.797 15.047 20.7609 15.0825 20.706 15.1113C20.6489 15.1412 20.5856 15.1562 20.5234 15.1562V14.1562C20.3101 14.1562 20.146 14.2635 20.0442 14.388C19.9545 14.4975 19.909 14.6221 19.8829 14.7181C19.8297 14.913 19.8125 15.1605 19.8125 15.4297H20.8125Z" fill="#333333"/>
</svg>

<svg xmlns="http://www.w3.org/2000/svg" width="50" height="50" fill="none"><path fill="#333" d="M20.523 14.656c.172 0 .563.242 1.172.727.453.328.68.586.68.773 0 .219-.11.399-.328.54-.375.312-.828 1.023-1.36 2.132-.562 1.125-.843 1.89-.843 2.297 0 .266.125.398.375.398.218 0 1.71-.351 4.476-1.054 2.547-.532 4.032-.922 4.453-1.172.657-.344 1.118-.516 1.383-.516.36 0 .852.328 1.477.985.453.5.68.859.68 1.078 0 .14-.157.343-.47.61-.312.25-.952 1.202-1.921 2.858-.969 1.641-2 3.086-3.094 4.336 1.86 1.063 3.227 2.024 4.102 2.883.484.516.726 1.36.726 2.532 0 .562-.156.843-.468.843-.329 0-.868-.414-1.618-1.242-.75-.937-1.992-2.172-3.726-3.703l-.14-.094-.095.094c-1.422 1.469-3.14 2.719-5.156 3.75-1.625.797-2.726 1.195-3.305 1.195-.14 0-.21-.031-.21-.093 0-.032.164-.133.492-.305 1.03-.438 2.445-1.453 4.242-3.047a37.11 37.11 0 0 0 2.742-2.648 42.465 42.465 0 0 0-2.695-1.899c-.813-.516-1.219-.82-1.219-.914 0-.063.063-.094.188-.094.656 0 2.203.633 4.64 1.899a28.774 28.774 0 0 0 1.875-2.414c1.656-2.313 2.485-3.797 2.485-4.453 0-.25-.125-.375-.375-.375-.844 0-2.688.406-5.532 1.218-2.797.735-4.5 1.305-5.11 1.711-.343.172-.608.258-.796.258-.14 0-.352-.219-.633-.656-.203-.297-.305-.54-.305-.727 0-.14.313-.765.938-1.875 1.375-2.265 2.063-3.953 2.063-5.062 0-.516.07-.774.21-.774Z"/><path fill="#333" d="m21.695 15.383-.31.391.008.007.01.007.292-.405Zm.352 1.312-.27-.42-.027.016-.023.02.32.384Zm-1.36 2.133.448.224.003-.008-.45-.216Zm4.008 1.64-.102-.489-.01.003-.01.002.122.485Zm4.453-1.171-.232-.443-.011.006-.012.007.255.43Zm2.86.469.37-.336-.008-.01-.362.346Zm.21 1.687.313.39.006-.004.006-.005-.324-.38Zm-1.921 2.86.43.254.002-.002-.432-.253Zm-3.094 4.335-.376-.329-.403.46.531.304.248-.435Zm4.102 2.883.364-.342-.007-.007-.007-.008-.35.357Zm-1.36 2.133-.39.312.01.012.01.012.37-.336Zm-3.726-3.703.33-.375-.025-.022-.028-.02-.277.417Zm-.14-.094.276-.416-.34-.227-.29.29.353.353Zm-.095.094-.353-.354-.006.006.36.348Zm-5.156 3.75.22.449.008-.004-.228-.445Zm-3.023.797-.196-.46-.018.008-.018.009.232.443Zm4.242-3.047-.33-.376-.002.002.332.374Zm2.742-2.648.366.34.377-.405-.44-.334-.303.398Zm-2.695-1.899.27-.42-.002-.002-.268.422Zm3.61.89-.231.444.35.183.259-.3-.379-.326Zm1.874-2.413-.406-.292-.005.007.411.285Zm-3.422-3.61.127.484.01-.003-.137-.48Zm-5.11 1.711.224.447.028-.014.026-.017-.277-.416Zm-1.429-.398.42-.27-.003-.007-.004-.006-.413.283Zm.633-2.602-.427-.26-.005.008-.004.007.436.245Zm2.273-5.336c-.058 0-.076-.016-.027.005.039.017.1.049.186.102.171.106.404.274.702.511l.622-.783a8.866 8.866 0 0 0-.797-.578 2.477 2.477 0 0 0-.318-.17.944.944 0 0 0-.368-.087v1Zm.88.632c.212.154.348.275.427.364.038.044.053.07.057.077.004.008-.012-.02-.012-.073h1c0-.282-.16-.511-.294-.664a3.629 3.629 0 0 0-.592-.514l-.587.81Zm.472.368c0 .022-.004.03-.01.04a.277.277 0 0 1-.088.079l.54.84c.33-.212.558-.536.558-.959h-1Zm-.148.155c-.246.205-.486.51-.723.883-.24.378-.497.853-.768 1.418l.902.432c.26-.544.497-.98.71-1.312.215-.34.39-.545.519-.653l-.64-.768Zm-1.487 2.294a14.87 14.87 0 0 0-.655 1.469c-.144.394-.241.755-.241 1.051h1c0-.11.043-.335.18-.706.132-.36.334-.814.61-1.367l-.894-.447Zm-.896 2.52c0 .203.047.448.23.642.187.2.435.256.645.256v-1c-.02 0-.016-.002.003.004a.21.21 0 0 1 .08.054c.057.061.042.107.042.044h-1Zm.875.898c.072 0 .156-.012.222-.023.077-.012.171-.03.281-.053.221-.045.52-.112.895-.2.75-.177 1.818-.442 3.201-.794l-.246-.969c-1.382.351-2.443.614-3.185.79-.371.087-.66.151-.866.194a6.25 6.25 0 0 1-.241.046c-.069.01-.08.01-.061.01v1Zm4.578-1.065a63.602 63.602 0 0 0 3.049-.697c.728-.192 1.276-.367 1.557-.534l-.51-.86c-.14.083-.545.228-1.302.427-.73.192-1.728.42-2.998.685l.204.98Zm4.583-1.218c.318-.167.577-.285.781-.361.214-.08.328-.098.37-.098v-1c-.223 0-.472.069-.72.16a8.055 8.055 0 0 0-.895.413l.464.886Zm1.151-.459c.036 0 .15.021.362.162.203.136.454.354.753.667l.724-.69a5.692 5.692 0 0 0-.923-.809c-.28-.187-.592-.33-.916-.33v1Zm1.106.82c.217.24.366.43.458.576.102.162.093.206.093.167h1c0-.258-.123-.504-.248-.7a5.4 5.4 0 0 0-.562-.714l-.74.671Zm.55.743c0-.056.016-.09.016-.09 0-.002-.006.012-.029.043a1.991 1.991 0 0 1-.28.275l.649.762c.169-.144.315-.287.424-.428.096-.125.22-.322.22-.562h-1Zm-.28.219c-.226.18-.504.546-.818 1.014a39.006 39.006 0 0 0-1.224 1.983l.864.505c.482-.824.878-1.466 1.19-1.93.326-.486.525-.722.612-.791l-.625-.781Zm-2.04 2.995c-.956 1.618-1.97 3.038-3.04 4.261l.752.659c1.117-1.277 2.166-2.748 3.148-4.411l-.86-.509Zm-2.912 5.025c1.845 1.054 3.17 1.99 4 2.805l.7-.714c-.92-.903-2.33-1.89-4.204-2.96l-.496.869Zm3.985 2.79c.356.379.591 1.066.591 2.19h1c0-1.221-.248-2.221-.862-2.874l-.729.685Zm.591 2.19c0 .118-.008.21-.02.278a.392.392 0 0 1-.034.111c-.004.008.004-.01.033-.027.03-.018.053-.019.052-.019v1a.89.89 0 0 0 .463-.124.91.91 0 0 0 .326-.344c.14-.251.18-.564.18-.876h-1Zm.032.343c.014 0-.087-.008-.346-.207-.236-.18-.535-.466-.901-.87l-.741.67c.384.425.729.76 1.033.993.28.215.612.414.954.414v-1Zm-1.227-1.054c-.778-.972-2.046-2.23-3.786-3.766l-.662.75c1.728 1.526 2.944 2.738 3.667 3.64l.78-.624Zm-3.84-3.807-.14-.094-.555.832.14.094.555-.832Zm-.771-.031-.094.093.707.707.094-.093-.707-.707Zm-.1.1c-1.38 1.424-3.053 2.643-5.025 3.652l.456.89c2.06-1.053 3.824-2.335 5.288-3.847l-.719-.696Zm-5.017 3.648c-.804.394-1.468.685-1.995.875-.54.196-.892.27-1.09.27v1c.38 0 .87-.126 1.43-.33a21.72 21.72 0 0 0 2.095-.917l-.44-.898Zm-3.085 1.144c-.048 0-.016-.008.045.02a.434.434 0 0 1 .244.387h-1c0 .116.035.236.114.34a.595.595 0 0 0 .236.187c.132.058.27.066.361.066v-1Zm.29.407a.485.485 0 0 1-.11.306c-.024.03-.044.045-.045.045-.004.004.006-.004.04-.026.067-.041.177-.103.339-.187l-.464-.886a6.755 6.755 0 0 0-.4.223 1.406 1.406 0 0 0-.144.1.662.662 0 0 0-.092.088c-.014.017-.125.142-.125.337h1Zm.187.155c1.111-.471 2.577-1.535 4.379-3.133l-.664-.748c-1.792 1.59-3.154 2.557-4.106 2.96l.391.921Zm4.376-3.13a37.553 37.553 0 0 0 2.78-2.685l-.733-.681a36.566 36.566 0 0 1-2.705 2.613l.658.752Zm2.715-3.424a42.961 42.961 0 0 0-2.727-1.92l-.54.84a41.986 41.986 0 0 1 2.663 1.877l.604-.797Zm-2.73-1.922a14.743 14.743 0 0 1-.881-.593 1.95 1.95 0 0 1-.179-.146c-.014-.014-.009-.011.004.007 0 .001.07.093.07.24h-1c0 .17.082.292.108.33a.966.966 0 0 0 .118.137c.074.073.17.151.279.232.219.164.537.377.946.637l.536-.844ZM21.376 26a.427.427 0 0 1-.23.377c-.073.037-.12.03-.082.03v-1a.813.813 0 0 0-.365.076.572.572 0 0 0-.323.517h1Zm-.313.406c.218 0 .685.119 1.463.438.754.308 1.735.775 2.948 1.404l.46-.887c-1.224-.636-2.235-1.118-3.029-1.443-.768-.314-1.403-.512-1.841-.512v1Zm5.02 1.725a29.264 29.264 0 0 0 1.907-2.456l-.822-.569a28.267 28.267 0 0 1-1.843 2.372l.758.653Zm1.903-2.45c.832-1.162 1.466-2.129 1.893-2.894.214-.383.38-.725.495-1.022.112-.288.19-.572.19-.828h-1c0 .073-.027.221-.122.468a7.36 7.36 0 0 1-.436.894c-.401.719-1.01 1.65-1.833 2.8l.813.583Zm2.578-4.744a.877.877 0 0 0-.24-.634.877.877 0 0 0-.636-.24v1c.048 0-.008.011-.072-.053-.064-.065-.052-.12-.052-.073h1Zm-.875-.875c-.481 0-1.199.113-2.124.317-.936.206-2.118.514-3.545.921l.275.962a60.886 60.886 0 0 1 3.485-.907c.92-.202 1.545-.293 1.909-.293v-1Zm-5.659 1.236c-1.403.368-2.54.698-3.407.988-.85.284-1.486.546-1.852.79l.554.832c.243-.162.763-.389 1.616-.674.837-.28 1.95-.603 3.343-.97l-.254-.966Zm-5.206 1.747c-.332.166-.51.205-.573.205v1c.311 0 .665-.133 1.02-.31l-.447-.895Zm-.573.205c.092 0 .145.034.145.035.004.001-.013-.009-.049-.046a2.855 2.855 0 0 1-.308-.416l-.841.541c.147.23.29.425.43.569.069.072.15.144.24.2.088.055.22.117.383.117v-1Zm-.22-.439c-.19-.278-.218-.414-.218-.444h-1c0 .345.177.694.392 1.01l.826-.566Zm-.218-.444c0 .057-.012.09-.006.068a.897.897 0 0 1 .028-.075c.032-.079.084-.192.16-.343.15-.302.38-.727.692-1.28l-.872-.49c-.314.557-.553.999-.714 1.322-.08.161-.146.3-.192.413a1.887 1.887 0 0 0-.06.167.775.775 0 0 0-.035.218h1Zm.865-1.615c.696-1.147 1.226-2.16 1.583-3.036.354-.87.552-1.639.552-2.286h-1c0 .461-.145 1.091-.478 1.909-.33.81-.832 1.774-1.511 2.894l.854.519Zm2.136-5.322c0-.247.018-.386.035-.449.009-.033.007-.005-.03.04a.395.395 0 0 1-.295.135v-1a.616.616 0 0 0-.479.232.882.882 0 0 0-.161.33c-.053.195-.07.443-.07.712h1Z"/></svg>
